X:316
T:Lassan kocsis, hogy a kocsi ne rázzon
M:4/4
L:1/4
K:Bb
C/D/E/E/ D/E/F/D/ | E<C C z |
G/A/B/B/ A/B/c/A/ | B<G G z |
G/A/B/B/ A/B/c/G/ | c d/c/ G/F/ G |
C/D/E/E/ D/E/F/D/ | E<C C z |


